svg/charges/tree-fruit/pine-tree.svg

<?xml version="1.0" encoding="UTF-8" standalone="no"?>
<svg
   xmlns:dc="http://purl.org/dc/elements/1.1/"
   xmlns:cc="http://creativecommons.org/ns#"
   xmlns:rdf="http://www.w3.org/1999/02/22-rdf-syntax-ns#"
   xmlns:svg="http://www.w3.org/2000/svg"
   xmlns="http://www.w3.org/2000/svg"
   version="1.0"
   width="297.14435"
   height="599.6062"
   id="svg2">
  <metadata
     id="metadata18029">
    <rdf:RDF>
      <cc:Work
         rdf:about="">
        <dc:format>image/svg+xml</dc:format>
        <dc:type
           rdf:resource="http://purl.org/dc/dcmitype/StillImage" />
        <dc:title></dc:title>
        <dc:creator>
          <cc:Agent>
            <dc:title>https://commons.wikimedia.org/wiki/User:Peter17</dc:title>
          </cc:Agent>
        </dc:creator>
      </cc:Work>
    </rdf:RDF>
  </metadata>
  <defs
     id="defs4" />
  <g
     transform="translate(-217.59687,-244.76711)"
     id="leaved">
    <path
       d="m 272.85714,330.21932 c -34.88042,-45.91959 30.92674,-90.75631 62.85715,-66.42857 29.38005,-29.86183 94.20004,-20.73468 98.57142,13.57143 76.0904,-10.4178 111.33063,85.07046 42.85715,76.42857 3.89558,22.42398 -2.07851,39.91313 -28.57143,47.14286 34.0116,34.24214 14.29786,75.51342 -42.85714,64.28571 -17.29081,12.62622 -48.00295,11.12472 -101.42858,-14.28571 -22.55225,41.19678 -83.83465,22.97043 -65,-30.71429 -24.61306,-21.0744 -30.92982,-41.53893 1.42858,-60.71428 -3.10387,-22.71642 4.82411,-35.09049 32.14285,-29.28572 z"
       style="fill:#00ff00;fill-rule:evenodd;stroke:#808080;stroke-width:2;stroke-linecap:butt;stroke-linejoin:miter;stroke-miterlimit:4;stroke-dasharray:none;stroke-opacity:1"
       id="path1884" />
  </g>
  <g
     transform="translate(-217.59687,-244.76711)"
     style="display:inline"
     id="layer2">
    <g
       style="fill:#ffffff;fill-opacity:1;stroke-width:2;stroke-miterlimit:4;stroke-dasharray:none"
       id="trunked">
      <path
         d="m 395.67782,585.29822 0.30198,10.22247 c 7.53405,-5.38748 13.93669,-11.90637 22.60216,-16.16244 5.39314,-1.9855 15.48901,-3.03045 23.23351,-4.54568 1.07088,-2.5926 -24.40446,0.35144 -21.97082,-2.02031 1.42224,-3.37528 3.83865,-7.56396 1.76777,-8.08122 -8.96728,11.34064 -17.46061,14.38653 -25.9346,20.58718 z"
         style="fill:#ff0000;fill-opacity:1;fill-rule:evenodd;stroke:#808080;stroke-width:2;stroke-linecap:butt;stroke-linejoin:miter;stroke-miterlimit:4;stroke-dasharray:none;stroke-opacity:1"
         id="path1890" />
      <path
         d="m 161.125,81.3125 c 8.39582,9.357421 30.06031,49.48135 34.84375,74.125 -7.33173,16.95398 -13.59445,34.96359 -22.125,50.71875 -13.55583,-11.92815 -24.2947,-28.0773 -36.4375,-42.125 -14.36489,-21.61213 -18.42313,-46.98219 -27.5,-66.78125 -1.22207,-1.484438 -2.97603,-1.93186 -4.65625,-2.5 5.24309,15.86136 14.56033,42.58571 12.875,54.28125 -1.07158,0.73966 -3.48527,0.32768 -17.6875,-10.1875 -0.788383,2.4332 -2.00942,4.63666 -3.75,6.59375 l 30,27.875 c 13.71884,15.95238 22.73921,31.20657 30,47.84375 0.92741,2.98869 -0.44148,7.12773 -0.71875,10.71875 C 130.64072,207.1538 93.12974,199.19802 68.125,174.75 c -0.0043,3.60711 0.47847,3.64213 1.3125,5.21875 5.960008,11.26653 72.9749,41.3365 86.53125,62.625 L 157.40625,354.75 144.5625,344.53125 c -0.15756,-0.41963 -4.37331,1.71292 -2.53125,3.375 2.95837,2.66934 10.21272,10.10211 13.9375,13.96875 l -1.89183,236.46157 27.14183,0.25718 c 0,0 -0.32678,-217.28079 -2.71875,-314.5 5.91867,-6.37516 31.54288,-25.82395 40.3125,-30.46875 8.12709,-4.30448 2.73289,-2.68071 2.15625,-4.71875 -14.04762,7.58027 -28.07738,14.82707 -42.125,25 0.2381,-17.57695 -0.56191,-35.17304 0.6875,-52.75 6.72693,-21.08024 20.0506,-50.80655 29.8125,-73.1875 -1.91897,3.51811 19.12031,13.41582 15.90625,10.34375 -1.83478,-0.33469 -17.36578,-15.8622 -16.4375,-17.71875 13.35752,-13.47559 22.69263,-32.67442 39.3125,-33.71875 l -3.25,-1.75 c -15.45936,-2.45521 -37.97405,35.65991 -40.78125,32.53125 0.28509,-9.92464 0.1067,-18.83104 -1.96875,-23.5625 -0.85752,10.28715 -2.79341,17.89803 -4.5625,25.90625 -5.63768,-14.05036 -22.44573,-45.49031 -28.75,-55.5 -1.42941,-2.269562 -6.61106,-2.496978 -7.6875,-3.1875 z"
         transform="translate(217.59658,244.77003)"
         style="fill:#ff0000;fill-opacity:1;fill-rule:evenodd;stroke:#808080;stroke-width:2;stroke-linecap:butt;stroke-linejoin:miter;stroke-miterlimit:4;stroke-dasharray:none;stroke-opacity:1"
         id="path1886" />
      <path
         d="m 374.13525,535.79543 -0.12627,-10.10153 c -11.21356,-6.02355 -33.16845,-14.29694 -34.47145,-17.67767 -4.09239,-3.51916 -9.42809,-19.65589 -15.5311,-23.61232 4.84144,9.74903 8.26779,18.1773 8.08122,23.23351 l -24.87501,-6.81853 c -0.44626,0.58926 -0.80064,1.17851 -1.89403,1.76777 11.87055,3.28174 21.65058,8.654 32.32488,13.13198 11.17019,5.03605 24.32632,13.38199 36.49176,20.07679 z"
         style="fill:#ff0000;fill-opacity:1;fill-rule:evenodd;stroke:#808080;stroke-width:2;stroke-linecap:butt;stroke-linejoin:miter;stroke-miterlimit:4;stroke-dasharray:none;stroke-opacity:1"
         id="path1888" />
    </g>
  </g>
</svg>

<?xml version="1.0" encoding="UTF-8" standalone="no"?>
<svg
   xmlns:dc="http://purl.org/dc/elements/1.1/"
   xmlns:cc="http://creativecommons.org/ns#"
   xmlns:rdf="http://www.w3.org/1999/02/22-rdf-syntax-ns#"
   xmlns:svg="http://www.w3.org/2000/svg"
   xmlns="http://www.w3.org/2000/svg"
   id="svg2"
   height="599.6062"
   width="297.14435"
   version="1.0">
  <metadata
     id="metadata18029">
    <rdf:RDF>
      <cc:Work
         rdf:about="">
        <dc:format>image/svg+xml</dc:format>
        <dc:type
           rdf:resource="http://purl.org/dc/dcmitype/StillImage" />
        <dc:title></dc:title>
        <dc:creator>
          <cc:Agent>
            <dc:title>https://commons.wikimedia.org/wiki/User:Peter17</dc:title>
          </cc:Agent>
        </dc:creator>
      </cc:Work>
    </rdf:RDF>
  </metadata>
  <defs
     id="defs4" />
  <g
     transform="translate(-217.59687,-244.76711)"
     id="leaved">
    <path
       d="m 272.85714,330.21932 c -34.88042,-45.91959 30.92674,-90.75631 62.85715,-66.42857 29.38005,-29.86183 94.20004,-20.73468 98.57142,13.57143 76.0904,-10.4178 111.33063,85.07046 42.85715,76.42857 3.89558,22.42398 -2.07851,39.91313 -28.57143,47.14286 34.0116,34.24214 14.29786,75.51342 -42.85714,64.28571 -17.29081,12.62622 -48.00295,11.12472 -101.42858,-14.28571 -22.55225,41.19678 -83.83465,22.97043 -65,-30.71429 -24.61306,-21.0744 -30.92982,-41.53893 1.42858,-60.71428 -3.10387,-22.71642 4.82411,-35.09049 32.14285,-29.28572 z"
       style="fill:#00ff00;fill-rule:evenodd;stroke:#808080;stroke-width:2;stroke-linecap:butt;stroke-linejoin:miter;stroke-miterlimit:4;stroke-dasharray:none;stroke-opacity:1"
       id="path1884" />
  </g>
  <g
     style="display:inline;fill:#ff0000"
     id="layer2">
    <g
       style="stroke-width:2.82842712;stroke-dasharray:none;fill-opacity:1;stroke-miterlimit:4;fill:#ff0000"
       id="trunked">
      <path
         d="M178.08095 340.53111C178.08095 340.53111 178.38293 350.75358 178.38293 350.75358C185.91698 345.3661 192.31962 338.84721 200.98509 334.59114C206.37823 332.60564 216.4741 331.56069 224.2186 330.04546C225.28948 327.45286 199.81414 330.3969 202.24778 328.02515C203.67002 324.64987 206.08643 320.46119 204.01555 319.94393C195.04827 331.28457 186.55494 334.33046 178.08095 340.53111C178.08095 340.53111 178.08095 340.53111 178.08095 340.53111"
         style="stroke-linejoin:miter;stroke-opacity:1;fill-rule:evenodd;fill-opacity:1;stroke:#808080;stroke-linecap:butt;stroke-miterlimit:4;stroke-dasharray:none;stroke-width:2.82842712;fill:#ff0000"
         id="path1890" />
      <path
         d="M161.12471 81.31542C169.52053 90.672841 191.18502 130.79677 195.96846 155.44042C188.63673 172.3944 182.37401 190.40401 173.84346 206.15917C160.28763 194.23102 149.54876 178.08187 137.40596 164.03417C123.04107 142.42204 118.98283 117.05198 109.90596 97.25292C108.68389 95.768482 106.92993 95.32106 105.24971 94.75292C110.4928 110.61428 119.81004 137.33863 118.12471 149.03417C117.05313 149.77383 114.63944 149.36185 100.43721 138.84667C99.648827 141.27987 98.42779 143.48333 96.68721 145.44042C96.68721 145.44042 126.68721 173.31542 126.68721 173.31542C140.40605 189.2678 149.42642 204.52199 156.68721 221.15917C157.61462 224.14786 156.24573 228.2869 155.96846 231.87792C130.64043 207.15672 93.12945 199.20094 68.12471 174.75292C68.12041 178.36003 68.60318 178.39505 69.43721 179.97167C75.397218 191.2382 142.41211 221.30817 155.96846 242.59667C155.96846 242.59667 157.40596 354.75292 157.40596 354.75292C157.40596 354.75292 144.56221 344.53417 144.56221 344.53417C144.40465 344.11454 140.1889 346.24709 142.03096 347.90917C144.98933 350.57851 152.24368 358.01128 155.96846 361.87792C155.96846 361.87792 154.07663 598.33949 154.07663 598.33949C154.07663 598.33949 181.21846 598.59667 181.21846 598.59667C181.21846 598.59667 180.89168 381.31588 178.49971 284.09667C184.41838 277.72151 210.04259 258.27272 218.81221 253.62792C226.9393 249.32344 221.5451 250.94721 220.96846 248.90917C206.92084 256.48944 192.89108 263.73624 178.84346 273.90917C179.08156 256.33222 178.28155 238.73613 179.53096 221.15917C186.25789 200.07893 199.58156 170.35262 209.34346 147.97167C207.42449 151.48978 228.46377 161.38749 225.24971 158.31542C223.41493 157.98073 207.88393 142.45322 208.81221 140.59667C222.16973 127.12108 231.50484 107.92225 248.12471 106.87792C248.12471 106.87792 244.87471 105.12792 244.87471 105.12792C229.41535 102.67271 206.90066 140.78783 204.09346 137.65917C204.37855 127.73453 204.20016 118.82813 202.12471 114.09667C201.26719 124.38382 199.3313 131.9947 197.56221 140.00292C191.92453 125.95256 175.11648 94.51261 168.81221 84.50292C167.3828 82.233358 162.20115 82.005942 161.12471 81.31542C161.12471 81.31542 161.12471 81.31542 161.12471 81.31542"
         style="stroke-linejoin:miter;stroke-opacity:1;fill-rule:evenodd;fill-opacity:1;stroke:#808080;stroke-linecap:butt;stroke-miterlimit:4;stroke-dasharray:none;stroke-width:2.82842712;fill:#ff0000"
         id="path1886" />
      <path
         d="M156.53838 291.02832C156.53838 291.02832 156.41211 280.92679 156.41211 280.92679C145.19855 274.90324 123.24366 266.62985 121.94066 263.24912C117.84827 259.72996 112.51257 243.59323 106.40956 239.6368C111.251 249.38583 114.67735 257.8141 114.49078 262.87031C114.49078 262.87031 89.61577 256.05178 89.61577 256.05178C89.16951 256.64104 88.81513 257.23029 87.72174 257.81955C99.59229 261.10129 109.37232 266.47355 120.04662 270.95153C131.21681 275.98758 144.37294 284.33352 156.53838 291.02832C156.53838 291.02832 156.53838 291.02832 156.53838 291.02832"
         style="stroke-linejoin:miter;stroke-opacity:1;fill-rule:evenodd;fill-opacity:1;stroke:#808080;stroke-linecap:butt;stroke-miterlimit:4;stroke-dasharray:none;stroke-width:2.82842712;fill:#ff0000"
         id="path1888" />
    </g>
  </g>
</svg>
